svg/nature/tree_fill.svg

<?xml version="1.0" encoding="UTF-8"?>
<svg width="24px" height="24px" viewBox="0 0 24 24" version="1.1" xmlns="http://www.w3.org/2000/svg" xmlns:xlink="http://www.w3.org/1999/xlink">
    <title>tree_fill</title>
    <g id="Icon" stroke="none" stroke-width="1" fill="none" fill-rule="evenodd">
        <g id="Map" transform="translate(-480.000000, -144.000000)" fill-rule="nonzero">
            <g id="tree_fill" transform="translate(480.000000, 144.000000)">
                <path d="M24,0 L24,24 L0,24 L0,0 L24,0 Z M12.5935,23.2578 L12.5819,23.2595 L12.5109,23.295 L12.4919,23.2987 L12.4767,23.295 L12.4057,23.2595 C12.3958,23.2564 12.387,23.259 12.3821,23.2649 L12.378,23.2758 L12.3609,23.7031 L12.3659,23.7235 L12.3769,23.7357 L12.4805,23.8097 L12.4953,23.8136 L12.5071,23.8097 L12.6107,23.7357 L12.6233,23.7197 L12.6267,23.7031 L12.6096,23.2758 C12.6076,23.2657 12.601,23.2593 12.5935,23.2578 Z M12.8584,23.1453 L12.8445,23.1473 L12.6598,23.2397 L12.6499,23.2499 L12.6472,23.2611 L12.6651,23.6906 L12.6699,23.7034 L12.6784,23.7105 L12.8793,23.8032 C12.8914,23.8069 12.9022,23.803 12.9078,23.7952 L12.9118,23.7812 L12.8777,23.1665 C12.8753,23.1546 12.8674,23.147 12.8584,23.1453 Z M12.143,23.1473 C12.1332,23.1424 12.1222,23.1453 12.1156,23.1526 L12.1099,23.1665 L12.0758,23.7812 C12.0751,23.7927 12.0828,23.8019 12.0926,23.8046 L12.1083,23.8032 L12.3092,23.7105 L12.3186,23.7024 L12.3225,23.6906 L12.3404,23.2611 L12.3372,23.2485 L12.3278,23.2397 L12.143,23.1473 Z" id="MingCute"></path>
                <path d="M12.7071,2.29289 C12.3166,1.90237 11.6834,1.90237 11.2929,2.29289 L7.29291,6.29289 C6.9815,6.6043 6.91048,7.08278 7.118,7.47122 C7.36517,7.93387 7.7513,8.24643 8.12781,8.458 L5.29291,11.2929 C4.90239,11.6834 4.90239,12.3166 5.29291,12.7071 C5.77133,13.1855 6.37472,13.4776 6.92653,13.6593 L4.29291,16.2929 C4.04785,16.538 3.94714,16.8924 4.02677,17.2298 C4.10621,17.5663 4.36115,17.8419 4.68897,17.9504 C5.37977,18.177 6.09166,18.3381 6.8039,18.4806 C7.58329,18.6365 8.54997,18.7924 9.64855,18.8922 L9.05135,20.6838 C8.94971,20.9887 9.00084,21.3239 9.1888,21.5847 C9.37675,21.8455 9.67859,22 9.99999855,22 L13.9999985,22 C14.3215,22 14.6233,21.8455 14.8113,21.5847 C14.9992,21.3239 15.0504,20.9887 14.9487,20.6838 L14.3515,18.8922 C15.4501,18.7924 16.4168,18.6365 17.1961,18.4806 C17.9085,18.3381 18.6256,18.1774 19.3162,17.9487 C19.645,17.8391 19.8936,17.5671 19.9733,17.2298 C20.0529,16.8924 19.9522,16.538 19.7071,16.2929 L17.0735,13.6593 C17.6253,13.4776 18.2287,13.1855 18.7071,12.7071 C19.0977,12.3166 19.0977,11.6834 18.7071,11.2929 L15.8722,8.458 C16.2487,8.24643 16.6349,7.93387 16.882,7.47122 C17.0896,7.08278 17.0185,6.6043 16.7071,6.29289 L12.7071,2.29289 Z" id="路径" fill="#09244B"></path>
            </g>
        </g>
    </g>
</svg>

<svg xmlns="http://www.w3.org/2000/svg" width="24" height="24"><g fill="none" fill-rule="nonzero"><path d="M24 0v24H0V0h24ZM12.594 23.258l-.012.002-.071.035-.02.004-.014-.004-.071-.036c-.01-.003-.019 0-.024.006l-.004.01-.017.428.005.02.01.013.104.074.015.004.012-.004.104-.074.012-.016.004-.017-.017-.427c-.002-.01-.009-.017-.016-.018Zm.264-.113-.014.002-.184.093-.01.01-.003.011.018.43.005.012.008.008.201.092c.012.004.023 0 .029-.008l.004-.014-.034-.614c-.003-.012-.01-.02-.02-.022Zm-.715.002a.023.023 0 0 0-.027.006l-.006.014-.034.614c0 .012.007.02.017.024l.015-.002.201-.093.01-.008.003-.011.018-.43-.003-.012-.01-.01-.184-.092Z"/><path fill="#09244B" d="M12.707 2.293a1 1 0 0 0-1.414 0l-4 4a1 1 0 0 0-.175 1.178c.247.463.633.775 1.01.987l-2.835 2.835a1 1 0 0 0 0 1.414c.478.478 1.082.77 1.634.952l-2.634 2.634a1 1 0 0 0 .396 1.657c.69.227 1.403.388 2.115.53.78.157 1.746.312 2.845.412l-.598 1.792A1 1 0 0 0 10 22h4a1 1 0 0 0 .949-1.316l-.598-1.792c1.1-.1 2.066-.255 2.845-.411.712-.143 1.43-.304 2.12-.532a1 1 0 0 0 .391-1.656l-2.634-2.634c.552-.181 1.156-.474 1.634-.952a1 1 0 0 0 0-1.414l-2.835-2.835c.377-.212.763-.524 1.01-.987a1 1 0 0 0-.175-1.178l-4-4Z"/></g></svg>
